packages/gestalt-icons-android/vr-theme/ic_vr_send_gestalt.svg

<svg width="24" height="24" viewBox="0 0 24 24" fill="none" xmlns="http://www.w3.org/2000/svg">
<path fill-rule="evenodd" clip-rule="evenodd" d="M4.07013 1.36854C3.28428 1.03455 2.37435 1.21121 1.77056 1.815C1.20976 2.3758 1.01393 3.20532 1.26473 3.95772L3.94554 12.0001L1.26473 20.0426C1.01393 20.795 1.20976 21.6245 1.77056 22.1853C2.37435 22.7891 3.28428 22.9657 4.07014 22.6317L22.1731 14.938C23.2806 14.4673 23.9996 13.3804 23.9996 12.177V11.8233C23.9996 10.6199 23.2806 9.53297 22.1731 9.06228L4.07013 1.36854ZM3.18477 3.22921C3.21184 3.20215 3.25263 3.19423 3.28785 3.2092L21.3908 10.9029C21.7599 11.0598 21.9996 11.4221 21.9996 11.8233V12.177C21.9996 12.5781 21.7599 12.9404 21.3908 13.0973L3.28785 20.7911C3.25263 20.8061 3.21184 20.7981 3.18477 20.7711C3.15964 20.7459 3.15086 20.7087 3.1621 20.675L5.72039 13.0001H13.9996V11.0001H5.72039L3.1621 3.32526C3.15086 3.29153 3.15964 3.25435 3.18477 3.22921Z" fill="black"/>
</svg>

<svg xmlns="http://www.w3.org/2000/svg" width="24" height="24"><path d="M4.07 1.37a2.1 2.1 0 0 0-2.8 2.59L3.94 12l-2.69 8.04a2.1 2.1 0 0 0 2.81 2.6l18.1-7.7A3 3 0 0 0 24 12.18v-.36a3 3 0 0 0-1.83-2.76zm-.89 1.86a.1.1 0 0 1 .1-.02l18.11 7.7a1 1 0 0 1 .61.91v.36a1 1 0 0 1-.6.92L3.28 20.8a.1.1 0 0 1-.13-.12L5.72 13H14v-2H5.72L3.16 3.33a.1.1 0 0 1 .02-.1"/></svg>
